X:1
T:Title
%%score ( 1 2 ) ( 3 4 )
L:1/8
Q:1/4=100
M:4/4
K:Bb
V:1 treble nm="Choir Aahs, Staff"
V:2 treble 
V:3 bass nm="Choir Aahs, Staff-1"
V:4 bass 
V:1
 D2 [DG]2 [EG]2 [FB]2 | [EA]2 G-[CG] [DG]2 [D^F]2 | [DG]2 [EF]2 [DF]2 [Dd]2 | [Gc]2 c-[Ec] [DB]4 | %4
w: By~George~M.~Garrett * * *||||
 [Dd]2 [GB]2 [GA]2 [FA]2 | [EG]2 [Gc]2 [Gc]2 [GB]2 | .G2 .A2 z2 .G2 | z4 z2 A2 | z4 d4 | %9
w: |||||
 [DG]2 [C^F]2 [B,G]4 |] %10
w: |
V:2
 x8 | z2 .B,2 z4 | x8 | z2 .F2 z4 | x8 | x8 | B-[FB]=E-[EG] [D^F]2 D-[Dd] | [Ec]2 [DB]2 [DB]2 DC | %8
 [B,G]2 [EG]2 C2 B,[EG] | x8 |] %10
V:3
 [G,B,]2 [G,B,]2 [E,B,]2 [B,,D]2 | [C,C]2 [E,G,]2 [D,A,]2 [D,A,]2 | [G,B,]2 [A,C]2 B,A,B,-[F,B,] | %3
 .B,2 z2 z4 | B,2 D2 z2 .D2 | B,2 E2 z4 | z4 A,2 z2 | .G,2 G,2 z4 | %8
 [E,G,]2 [C,G,]2 [A,,^F,]2 [B,,G,][C,A,] | z2 .A,2 z4 |] %10
V:4
 x8 | x8 | z4 z2 .G,2 | E,-[E,G,] [F,A,]2 [B,,B,]4 | B,,A,,B,,C, [D,D]2 D,-[D,C] | %5
 E,D,E,F, [G,D]2 [G,D]2 | [G,,D]2 [A,,_D]2 D,C, [B,,G,]2 | A,,-[A,,^F,]B,,C, [D,G,]2 [D,F,]2 | x8 | %9
 [D,A,]2 D,-[D,E] [G,,D]4 |] %10

